packages/icons/raw/imported/SportCricket.svg

<svg width="32" height="32" viewBox="0 0 32 32" fill="none" xmlns="http://www.w3.org/2000/svg">
<path d="M10.38 6.19964L10.7436 5.85651L10.38 6.19964ZM20.8101 17.254L21.1737 16.9109L20.8101 17.254ZM17.1017 20.8421L16.7547 21.2021L17.1017 20.8421ZM6.19157 10.3249L6.53858 9.96493L6.53858 9.96493L6.19157 10.3249ZM6.07116 9.58735L6.514 9.81949L6.514 9.81949L6.07116 9.58735ZM7.20692 7.42076L7.64976 7.6529L7.20692 7.42076ZM7.48204 7.15051L7.70725 7.59692L7.70725 7.59692L7.48204 7.15051ZM9.62656 6.06866L9.85177 6.51507L9.62656 6.06866ZM18.2879 20.835L18.6393 21.1908L18.2879 20.835ZM20.7903 18.3635L20.4389 18.0078L20.7903 18.3635ZM23.0936 23.3094L23.5616 23.4854L23.0936 23.3094ZM23.2845 23.1232L23.1183 22.6516L23.2845 23.1232ZM22.629 25.0839L22.2834 25.4453L22.629 25.0839ZM22.5522 24.7493L22.0842 24.5733L22.5522 24.7493ZM23.94 25.9081L23.5887 25.5524L23.94 25.9081ZM23.4946 25.9117L23.8402 25.5503L23.4946 25.9117ZM25.9033 23.5182L26.2489 23.1568L25.9033 23.5182ZM25.907 23.9654L26.2583 24.3212L25.907 23.9654ZM25.0379 22.6906L24.6923 23.052L25.0379 22.6906ZM24.7103 22.6205L24.8765 23.0921L24.7103 22.6205ZM14.247 13.5909C14.052 13.3954 13.7354 13.3951 13.5399 13.5901C13.3445 13.7852 13.3441 14.1017 13.5392 14.2972L14.247 13.5909ZM18.8701 19.5389L19.2214 19.8946L18.8701 19.5389ZM20.0504 18.9266L19.7001 19.2834L20.0504 18.9266ZM19.4891 18.9275L19.8405 19.2832L19.4891 18.9275ZM10.0163 6.54278L20.4464 17.5971L21.1737 16.9109L10.7436 5.85651L10.0163 6.54278ZM17.4487 20.4822L6.53858 9.96493L5.84456 10.6849L16.7547 21.2021L17.4487 20.4822ZM6.514 9.81949L7.64976 7.6529L6.76408 7.18861L5.62831 9.3552L6.514 9.81949ZM7.70725 7.59692L9.85177 6.51507L9.40136 5.62225L7.25684 6.7041L7.70725 7.59692ZM7.64976 7.6529C7.6619 7.62975 7.68165 7.60983 7.70725 7.59692L7.25684 6.7041C7.04644 6.81024 6.8738 6.97931 6.76408 7.18861L7.64976 7.6529ZM6.53858 9.96493C6.4976 9.92543 6.48911 9.86697 6.514 9.81949L5.62831 9.3552C5.39609 9.7982 5.48537 10.3386 5.84456 10.6849L6.53858 9.96493ZM16.7547 21.2021C17.2807 21.7092 18.1194 21.7043 18.6393 21.1908L17.9366 20.4793C17.8029 20.6113 17.5841 20.6127 17.4487 20.4822L16.7547 21.2021ZM20.4464 17.5971C20.5568 17.7141 20.5538 17.8944 20.4389 18.0078L21.1416 18.7193C21.6428 18.2243 21.6573 17.4234 21.1737 16.9109L20.4464 17.5971ZM10.7436 5.85651C10.3976 5.48975 9.85035 5.39575 9.40136 5.62225L9.85177 6.51507C9.90792 6.48675 9.97561 6.49965 10.0163 6.54278L10.7436 5.85651ZM19.7001 19.2834L23.6663 23.1771L24.3669 22.4635L20.4007 18.5698L19.7001 19.2834ZM23.1786 23.6371L19.2212 19.7521L18.5207 20.4657L22.478 24.3507L23.1786 23.6371ZM24.6923 23.052L25.5577 23.8795L26.2489 23.1568L25.3834 22.3292L24.6923 23.052ZM25.5556 23.6097L23.5887 25.5524L24.2914 26.2639L26.2583 24.3212L25.5556 23.6097ZM23.8402 25.5503L22.9746 24.7226L22.2834 25.4453L23.1491 26.2731L23.8402 25.5503ZM23.0202 24.9253L23.5616 23.4854L22.6256 23.1334L22.0842 24.5733L23.0202 24.9253ZM23.4508 23.5947L24.8765 23.0921L24.544 22.149L23.1183 22.6516L23.4508 23.5947ZM23.5616 23.4854C23.5417 23.5382 23.5002 23.5773 23.4508 23.5947L23.1183 22.6516C22.8921 22.7314 22.7108 22.9068 22.6256 23.1334L23.5616 23.4854ZM22.9746 24.7226C23.0278 24.7735 23.0472 24.8533 23.0202 24.9253L22.0842 24.5733C21.9693 24.8787 22.049 25.2212 22.2834 25.4453L22.9746 24.7226ZM23.5887 25.5524C23.6586 25.4833 23.7693 25.4825 23.8402 25.5503L23.1491 26.2731C23.4691 26.5791 23.9762 26.5752 24.2914 26.2639L23.5887 25.5524ZM25.5577 23.8795C25.4817 23.8068 25.4806 23.6838 25.5556 23.6097L26.2583 24.3212C26.5843 23.9992 26.5799 23.4734 26.2489 23.1568L25.5577 23.8795ZM25.3834 22.3292C25.1596 22.1152 24.8345 22.0466 24.544 22.149L24.8765 23.0921C24.8136 23.1143 24.7425 23.0999 24.6923 23.052L25.3834 22.3292ZM25.1626 10.5734C25.1626 12.1613 23.858 13.4588 22.2357 13.4588V14.4588C24.3987 14.4588 26.1626 12.725 26.1626 10.5734H25.1626ZM22.2357 13.4588C20.6135 13.4588 19.3088 12.1613 19.3088 10.5734H18.3088C18.3088 12.725 20.0727 14.4588 22.2357 14.4588V13.4588ZM19.3088 10.5734C19.3088 8.9856 20.6135 7.68803 22.2357 7.68803V6.68803C20.0727 6.68803 18.3088 8.42186 18.3088 10.5734H19.3088ZM22.2357 7.68803C23.858 7.68803 25.1626 8.9856 25.1626 10.5734H26.1626C26.1626 8.42186 24.3987 6.68803 22.2357 6.68803V7.68803ZM19.411 12.5637L24.1401 7.8918L23.4373 7.1804L18.7082 11.8523L19.411 12.5637ZM20.842 13.7748L25.469 9.20382L24.7662 8.49242L20.1392 13.0634L20.842 13.7748ZM18.6393 21.1908L21.1416 18.7193L20.4389 18.0078L17.9366 20.4793L18.6393 21.1908ZM19.2214 19.8946L19.5266 19.5933L18.8239 18.8818L18.5187 19.1831L19.2214 19.8946ZM19.5266 19.5933L19.8405 19.2832L19.1378 18.5718L18.8239 18.8818L19.5266 19.5933ZM19.5291 18.8843L14.247 13.5909L13.5392 14.2972L18.8213 19.5907L19.5291 18.8843ZM19.2212 19.7521C19.2611 19.7912 19.2612 19.8554 19.2214 19.8946L18.5187 19.1831C18.1612 19.5362 18.1621 20.1137 18.5207 20.4657L19.2212 19.7521ZM20.4007 18.5698C20.0499 18.2254 19.4876 18.2263 19.1378 18.5718L19.8405 19.2832C19.8016 19.3216 19.7391 19.3217 19.7001 19.2834L20.4007 18.5698Z" fill="black"/>
</svg>

<svg width="32" height="32" fill="none" xmlns="http://www.w3.org/2000/svg"><path d="m10.38 6.2.364-.343-.364.343Zm10.43 11.054.364-.343-.364.343Zm-3.708 3.588-.347.36.347-.36ZM6.192 10.325l.347-.36-.347.36Zm-.12-.738.442.232-.443-.232Zm1.135-2.166.443.232-.443-.232Zm.275-.27.225.446-.225-.446Zm2.145-1.082.225.446-.225-.446Zm8.66 14.766.352.356-.351-.356Zm2.503-2.472-.351-.355.351.355Zm2.304 4.946.468.176-.468-.176Zm.19-.186-.166-.471.167.471Zm-.655 1.96-.346.362.346-.361Zm-.077-.334-.468-.176.468.176Zm1.388 1.16-.351-.357.351.356Zm-.445.003.345-.362-.345.362Zm2.408-2.394.346-.361-.346.361Zm.004.447.351.356-.351-.356Zm-.87-1.274-.345.361.346-.361Zm-.327-.07.166.471-.166-.471Zm-10.463-9.03a.5.5 0 1 0-.708.706l.708-.706Zm4.623 5.948.351.356-.35-.356Zm1.18-.612-.35.356.35-.356Zm-.56 0 .35.356-.35-.356ZM10.015 6.543l10.43 11.054.728-.686-10.43-11.054-.728.686Zm7.433 13.94L6.539 9.964l-.694.72 10.91 10.517.694-.72ZM6.514 9.818 7.65 7.653l-.886-.464-1.136 2.166.886.464Zm1.193-2.222 2.145-1.082-.45-.893-2.145 1.082.45.893Zm-.057.056a.131.131 0 0 1 .057-.056l-.45-.893c-.21.106-.383.275-.493.485l.886.464ZM6.539 9.965a.122.122 0 0 1-.025-.146l-.886-.464c-.232.443-.143.984.217 1.33l.694-.72Zm10.216 11.237a1.351 1.351 0 0 0 1.884-.011l-.702-.712a.352.352 0 0 1-.488.003l-.694.72Zm3.691-3.605a.292.292 0 0 1-.007.41l.703.712a1.292 1.292 0 0 0 .032-1.808l-.728.686Zm-9.702-11.74A1.14 1.14 0 0 0 9.4 5.622l.45.893a.14.14 0 0 1 .165.028l.728-.686ZM19.7 19.283l3.966 3.894.7-.713-3.965-3.894-.7.713Zm3.479 4.354-3.958-3.885-.7.714 3.957 3.885.7-.714Zm1.513-.585.866.828.69-.723-.865-.828-.69.723Zm.864.558-1.967 1.942.702.712 1.967-1.943-.702-.711Zm-1.716 1.94-.865-.827-.692.722.866.828.691-.723Zm-.82-.625.542-1.44-.936-.352-.542 1.44.936.352Zm.43-1.33 1.427-.503-.333-.943-1.426.503.333.943Zm.112-.11a.184.184 0 0 1-.111.11l-.333-.943a.816.816 0 0 0-.492.481l.936.352Zm-.587 1.238a.19.19 0 0 1 .045.202l-.936-.352a.81.81 0 0 0 .2.872l.69-.722Zm.614.83a.18.18 0 0 1 .251-.003l-.69.723a.82.82 0 0 0 1.141-.01l-.702-.71Zm1.969-1.674a.189.189 0 0 1-.002-.27l.702.712a.811.811 0 0 0-.01-1.164l-.69.723Zm-.175-1.55a.82.82 0 0 0-.839-.18l.332.943a.18.18 0 0 1-.184-.04l.691-.723Zm-.22-11.756c0 1.588-1.305 2.886-2.927 2.886v1c2.163 0 3.927-1.734 3.927-3.886h-1Zm-2.927 2.886c-1.623 0-2.927-1.298-2.927-2.886h-1c0 2.152 1.764 3.886 3.927 3.886v-1Zm-2.927-2.886c0-1.587 1.304-2.885 2.927-2.885v-1c-2.163 0-3.927 1.734-3.927 3.885h1Zm2.927-2.885c1.622 0 2.927 1.298 2.927 2.885h1c0-2.151-1.764-3.885-3.927-3.885v1Zm-2.825 4.876 4.73-4.672-.704-.712-4.729 4.672.703.712Zm1.431 1.21 4.627-4.57-.703-.712-4.627 4.571.703.712Zm-2.203 7.417 2.503-2.472-.703-.711-2.502 2.471.702.712Zm.582-1.296.306-.302-.703-.711-.305.301.702.712Zm.306-.302.313-.31-.702-.711-.314.31.703.711Zm.002-.709-5.282-5.293-.708.706 5.282 5.294.708-.707Zm-.308.868a.1.1 0 0 1 0 .143l-.702-.712a.9.9 0 0 0 .002 1.283l.7-.714Zm1.18-1.182a.9.9 0 0 0-1.263.002l.702.711a.1.1 0 0 1-.14 0l.7-.713Z" fill="#000"/></svg>
